assets/features/global-acquiring/icon4_animation4.svg

<svg width="104" height="104" viewBox="0 0 104 104" fill="none" xmlns="http://www.w3.org/2000/svg">
<g filter="url(#filter0_d_1540_4672)">
<rect x="12" y="4" width="80" height="80" rx="20" fill="white"/>
<path d="M66.7915 42.7282C66.7915 36.2294 72.2525 32.98 72.4709 32.7634C69.4128 28.2142 64.6072 27.781 62.8597 27.5643C58.7093 27.1311 54.9959 29.9472 52.8115 29.9472C50.8456 29.9472 47.569 27.5643 44.074 27.781C39.7052 27.781 35.5549 30.3805 33.1521 34.2797C28.5649 42.0783 32.0599 53.9928 36.6471 60.4915C38.8315 63.7409 41.4527 67.207 44.9477 66.9903C48.2243 66.7737 49.5349 64.8241 53.4668 64.8241C57.3987 64.8241 58.7093 66.9903 62.2043 66.9903C65.6994 66.9903 68.1022 63.7409 70.2866 60.7082C72.9078 57.0255 73.7816 53.5595 74 53.3429C73.5631 53.1262 66.7915 50.5267 66.7915 42.7282ZM60.02 23.2318C61.7675 21.0655 63.0781 18.0328 62.6412 15C60.02 15 56.7434 16.733 54.9959 18.8993C53.2484 20.8489 51.7193 23.8817 52.1562 26.9145C55.2143 27.1311 58.2725 25.3981 60.02 23.2318Z" fill="#040000" fill-opacity="0.8"/>
</g>
<defs>
<filter id="filter0_d_1540_4672" x="0" y="0" width="104" height="104" filterUnits="userSpaceOnUse" color-interpolation-filters="sRGB">
<feFlood flood-opacity="0" result="BackgroundImageFix"/>
<feColorMatrix in="SourceAlpha" type="matrix" values="0 0 0 0 0 0 0 0 0 0 0 0 0 0 0 0 0 0 127 0" result="hardAlpha"/>
<feOffset dy="8"/>
<feGaussianBlur stdDeviation="6"/>
<feComposite in2="hardAlpha" operator="out"/>
<feColorMatrix type="matrix" values="0 0 0 0 0.586538 0 0 0 0 0.586538 0 0 0 0 0.586538 0 0 0 0.25 0"/>
<feBlend mode="normal" in2="BackgroundImageFix" result="effect1_dropShadow_1540_4672"/>
<feBlend mode="normal" in="SourceGraphic" in2="effect1_dropShadow_1540_4672" result="shape"/>
</filter>
</defs>
</svg>

<svg xmlns="http://www.w3.org/2000/svg" width="104" height="104" fill="none" viewBox="0 0 104 104"><g filter="url(#a)"><rect width="80" height="80" x="12" y="4" fill="#fff" rx="20"/><path fill="#040000" fill-opacity=".8" d="M66.792 42.728c0-6.499 5.46-9.748 5.679-9.965-3.058-4.549-7.864-4.982-9.611-5.199-4.15-.433-7.864 2.383-10.048 2.383-1.966 0-5.243-2.383-8.738-2.166-4.369 0-8.52 2.6-10.922 6.499-4.587 7.798-1.092 19.713 3.495 26.212 2.185 3.249 4.806 6.715 8.3 6.498 3.277-.216 4.588-2.166 8.52-2.166s5.242 2.166 8.737 2.166 5.898-3.25 8.083-6.282c2.62-3.682 3.495-7.148 3.713-7.365-.437-.217-7.209-2.816-7.209-10.615M60.02 23.232c1.747-2.166 3.058-5.2 2.621-8.232-2.621 0-5.898 1.733-7.645 3.9-1.748 1.949-3.277 4.982-2.84 8.015 3.058.216 6.117-1.517 7.864-3.683"/></g><defs><filter id="a" width="104" height="104" x="0" y="0" color-interpolation-filters="sRGB" filterUnits="userSpaceOnUse"><feFlood flood-opacity="0" result="BackgroundImageFix"/><feColorMatrix in="SourceAlpha" result="hardAlpha" values="0 0 0 0 0 0 0 0 0 0 0 0 0 0 0 0 0 0 127 0"/><feOffset dy="8"/><feGaussianBlur stdDeviation="6"/><feComposite in2="hardAlpha" operator="out"/><feColorMatrix values="0 0 0 0 0.586538 0 0 0 0 0.586538 0 0 0 0 0.586538 0 0 0 0.25 0"/><feBlend in2="BackgroundImageFix" result="effect1_dropShadow_1540_4672"/><feBlend in="SourceGraphic" in2="effect1_dropShadow_1540_4672" result="shape"/></filter></defs></svg>
